X:130
T:Haywards Schottische. GHW.041
M:4/4
L:1/8
Q:120
S:George H.Watson,MS,Swanton Abbott,Norfolk,1850-1880
R:HP 32 Schottische
O:England
A:Norfolk
N:Pause mark at end of A
Z:vmp.Taz Tarry
K:G
B>cB>A G z d2|e>fg>e d3 B|c2 a>c B2 g>B|A>BA>^G A z d2|!
B>cB>A G z d2|e>fg>e d3 B|c2 a>c B2 g>B|A>cB>A G3 z:|!
|:A2A2 B3 A|FAde f3 g|fe^de B3 e|ede>d A3 A|!
A2A2 B3 A|FAde f3 g|fe^de A^cfe|1 d2d2d2:|2 d2 c6||!
K:C
e2e2 f3e|ed^cd A3 A|c>BA>B d2 dd|e>dc>d e2 A2|!
e2e2 f3e|ed^cd A3c|c>BA>G F>Ge>d|c2c2c2z2||

